X:02101
T:The Bob o' Dowally
T:8 x 32S 3C (RSCDS Bk 2)
%
P:Bob o' Dowally
R:strathspey
B:RSCDS Bk 2-10
O:arr. T. Traub 12-9-2006
N:(pronounced "Dooly")
M:4/4
L:1/8
K:A
E |: "A"A>e e2 e>Ac<A|"Em"B>e e2 "G"d>=GB<G|"A"A>e e2 e>Ac<A|"Em"E/E/E E2 "G"=G>AB<G :|
|: "A"A>aa>e c>ac<A|"G"B>=gg>e d>gB<=G| "A"A>aa>e c>ea<e|"G"=g<b "C"e<g "G"d<g B<=G :|
